Sources/FrostedUI/Resources/Icons.xcassets/raiseHand12.imageset/raise-hand-12.svg

<svg width="12" height="12" viewBox="0 0 12 12" fill="none" xmlns="http://www.w3.org/2000/svg" data-fui-icon="true">
  <path
    d="M5.11133 0.5625C5.65837 0.562634 6.14752 0.812014 6.47168 1.20312C6.67898 1.11786 6.90574 1.06934 7.14355 1.06934C8.11697 1.06956 8.90918 1.85737 8.90918 2.83301V3.00195C8.94006 3.00082 8.97036 3 9 3C9.44848 3 9.8954 3.1631 10.2236 3.52539C10.5466 3.88193 10.6874 4.35614 10.6875 4.85938V6.75977C10.6875 9.42449 8.5781 11.4375 6 11.4375C3.42189 11.4375 1.3125 9.42449 1.3125 6.75977V3.33984C1.3125 2.36406 2.10552 1.57617 3.0791 1.57617C3.22033 1.57621 3.35752 1.59364 3.48926 1.625C3.76099 0.999075 4.38639 0.5625 5.11133 0.5625ZM5.11133 2.0625C4.96253 2.0625 4.84473 2.18246 4.84473 2.32617V4.85938C4.84473 5.27359 4.50894 5.60938 4.09473 5.60938C3.68053 5.60936 3.34473 5.27358 3.34473 4.85938V3.33984L3.33984 3.28711C3.31548 3.16793 3.20918 3.07639 3.0791 3.07617C2.9303 3.07617 2.8125 3.19613 2.8125 3.33984V6.75977C2.8125 8.57477 4.22886 9.9375 6 9.9375C7.77113 9.9375 9.1875 8.57477 9.1875 6.75977V4.85938C9.18742 4.62845 9.12456 4.54783 9.11133 4.5332C9.10336 4.52441 9.08162 4.5 9 4.5C8.96635 4.5 8.93967 4.50187 8.91895 4.50391C8.9137 4.53703 8.90919 4.58531 8.90918 4.65234C8.90918 5.07234 8.84245 5.41684 8.72656 5.7168C8.61312 6.01036 8.4627 6.23112 8.35254 6.39062C8.14834 6.68629 8.0625 6.80117 8.0625 7.125C8.0625 7.53921 7.72671 7.875 7.3125 7.875C6.89829 7.875 6.5625 7.53921 6.5625 7.125C6.5625 6.30359 6.9 5.85538 7.11914 5.53809C7.2205 5.39131 7.28187 5.29297 7.32715 5.17578C7.37001 5.0648 7.40918 4.90597 7.40918 4.65234V2.83301C7.40918 2.68942 7.29217 2.56956 7.14355 2.56934C6.99474 2.56934 6.87695 2.68929 6.87695 2.83301V4.35352C6.8767 4.76751 6.54101 5.10352 6.12695 5.10352C5.71293 5.10348 5.37721 4.76749 5.37695 4.35352V2.32617C5.37695 2.18259 5.25993 2.06274 5.11133 2.0625Z"
    fill="currentColor"
  />
</svg>

<svg xmlns="http://www.w3.org/2000/svg" width="12" height="12" fill="none" data-fui-icon="true" viewBox="0 0 12 12"><path fill="currentColor" d="M5.111.563c.547 0 1.037.249 1.36.64a1.763 1.763 0 0 1 2.438 1.63v.169L9 3c.448 0 .895.163 1.224.525.323.357.463.831.463 1.334v1.9c0 2.665-2.109 4.679-4.687 4.679S1.313 9.424 1.313 6.76V3.34a1.765 1.765 0 0 1 2.176-1.715A1.77 1.77 0 0 1 5.111.563m0 1.5a.265.265 0 0 0-.266.263V4.86a.75.75 0 0 1-1.5 0V3.34l-.005-.052a.266.266 0 0 0-.26-.21.265.265 0 0 0-.268.263v3.42C2.813 8.575 4.23 9.938 6 9.938S9.188 8.575 9.188 6.76v-1.9c0-.232-.063-.312-.077-.327C9.103 4.524 9.081 4.5 9 4.5a1 1 0 0 0-.081.004 1 1 0 0 0-.01.148c0 .42-.067.765-.182 1.065a3.2 3.2 0 0 1-.374.674c-.205.295-.29.41-.29.734a.75.75 0 0 1-1.5 0c0-.821.337-1.27.556-1.587.102-.147.163-.245.208-.362.043-.111.082-.27.082-.524V2.833a.265.265 0 0 0-.265-.264.265.265 0 0 0-.267.264v1.52a.75.75 0 0 1-1.5 0V2.327a.265.265 0 0 0-.266-.264"/></svg>
